report_00007_2020-12-11T15:55:29.892Z/mainthread-work-breakdown/comparison/line/9_vs_10.svg

<svg width="640" height="500" xmlns="http://www.w3.org/2000/svg" xmlns:xlink="http://www.w3.org/1999/xlink"><path fill="#fff" d="M0 0h640v500H0z"/><defs><path id="d" stroke-width=".222" stroke="currentColor" d="M-1-1h2v2h-2z"/><path id="b" stroke-width=".222" stroke="currentColor" d="M0-1.33l-1.33 2h2.66z"/><path id="f" stroke-width=".222" stroke="currentColor" d="M0 1.33L1.265.411.782-1.067l-1.564-.009-.483 1.487z"/><use xlink:href="#b" id="c" stroke="currentColor" transform="rotate(180)"/><use xlink:href="#d" id="e" stroke="currentColor" transform="rotate(45)"/><circle id="a" stroke-width=".222" stroke="currentColor" cx="0" cy="0" r="1"/></defs><g fill="none" color="#000" stroke="currentColor"><path stroke="#000" d="M53.9 374.3h9m552.1 0h-9"/><text transform="translate(45.6 378.2)" stroke="none" fill="#000" font-family="Arial" font-size="12" text-anchor="end"><tspan>420</tspan></text></g><g fill="none" color="#000" stroke="currentColor"><path stroke="#000" d="M53.9 318.4h9m552.1 0h-9"/><text transform="translate(45.6 322.3)" stroke="none" fill="#000" font-family="Arial" font-size="12" text-anchor="end"><tspan>440</tspan></text></g><g fill="none" color="#000" stroke="currentColor"><path stroke="#000" d="M53.9 262.5h9m552.1 0h-9"/><text transform="translate(45.6 266.4)" stroke="none" fill="#000" font-family="Arial" font-size="12" text-anchor="end"><tspan>460</tspan></text></g><g fill="none" color="#000" stroke="currentColor"><path stroke="#000" d="M53.9 206.6h9m552.1 0h-9"/><text transform="translate(45.6 210.5)" stroke="none" fill="#000" font-family="Arial" font-size="12" text-anchor="end"><tspan>480</tspan></text></g><g fill="none" color="#000" stroke="currentColor"><path stroke="#000" d="M53.9 150.7h9m552.1 0h-9"/><text transform="translate(45.6 154.6)" stroke="none" fill="#000" font-family="Arial" font-size="12" text-anchor="end"><tspan>500</tspan></text></g><g fill="none" color="#000" stroke="currentColor"><path stroke="#000" d="M53.9 94.8h9m552.1 0h-9"/><text transform="translate(45.6 98.7)" stroke="none" fill="#000" font-family="Arial" font-size="12" text-anchor="end"><tspan>520</tspan></text></g><g fill="none" color="#000" stroke="currentColor"><path stroke="#000" d="M53.9 39h9M615 39h-9"/><text transform="translate(45.6 42.9)" stroke="none" fill="#000" font-family="Arial" font-size="12" text-anchor="end"><tspan>540</tspan></text></g><g fill="none" color="#000" stroke="currentColor"><path stroke="#000" d="M53.9 428v-9m0-400.9v9"/><text transform="translate(53.9 449.9)" stroke="none" fill="#000" font-family="Arial" font-size="12" text-anchor="middle"><tspan>0</tspan></text></g><g fill="none" color="#000" stroke="currentColor"><path stroke="#000" d="M110.6 428v-9m0-400.9v9"/><text transform="translate(110.6 449.9)" stroke="none" fill="#000" font-family="Arial" font-size="12" text-anchor="middle"><tspan>10</tspan></text></g><g fill="none" color="#000" stroke="currentColor"><path stroke="#000" d="M167.3 428v-9m0-400.9v9"/><text transform="translate(167.3 449.9)" stroke="none" fill="#000" font-family="Arial" font-size="12" text-anchor="middle"><tspan>20</tspan></text></g><g fill="none" color="#000" stroke="currentColor"><path stroke="#000" d="M223.9 428v-9m0-400.9v9"/><text transform="translate(223.9 449.9)" stroke="none" fill="#000" font-family="Arial" font-size="12" text-anchor="middle"><tspan>30</tspan></text></g><g fill="none" color="#000" stroke="currentColor"><path stroke="#000" d="M280.6 428v-9m0-400.9v9"/><text transform="translate(280.6 449.9)" stroke="none" fill="#000" font-family="Arial" font-size="12" text-anchor="middle"><tspan>40</tspan></text></g><g fill="none" color="#000" stroke="currentColor"><path stroke="#000" d="M337.3 428v-9m0-400.9v9"/><text transform="translate(337.3 449.9)" stroke="none" fill="#000" font-family="Arial" font-size="12" text-anchor="middle"><tspan>50</tspan></text></g><g fill="none" color="#000" stroke="currentColor"><path stroke="#000" d="M394 428v-9m0-400.9v9"/><text transform="translate(394 449.9)" stroke="none" fill="#000" font-family="Arial" font-size="12" text-anchor="middle"><tspan>60</tspan></text></g><g fill="none" color="#000" stroke="currentColor"><path stroke="#000" d="M450.6 428v-9m0-400.9v9"/><text transform="translate(450.6 449.9)" stroke="none" fill="#000" font-family="Arial" font-size="12" text-anchor="middle"><tspan>70</tspan></text></g><g fill="none" color="#000" stroke="currentColor"><path stroke="#000" d="M507.3 428v-9m0-400.9v9"/><text transform="translate(507.3 449.9)" stroke="none" fill="#000" font-family="Arial" font-size="12" text-anchor="middle"><tspan>80</tspan></text></g><g fill="none" color="#000" stroke="currentColor"><path stroke="#000" d="M564 428v-9m0-400.9v9"/><text transform="translate(564 449.9)" stroke="none" fill="#000" font-family="Arial" font-size="12" text-anchor="middle"><tspan>90</tspan></text></g><path stroke="#000" d="M53.9 18.1V428H615V18.1H53.9z" fill="none" color="#000"/><text transform="translate(275.6 467.9)" stroke="none" fill="#000" font-family="Arial" font-size="12" text-anchor="end" color="#000"><tspan>pages+cached+noexternal+nocss</tspan></text><path stroke="#9400D3" d="M283.9 464h42.2M53.9 255.9l5.7-24.5 5.6-37.2 5.7 7.9 5.7 40.7 5.6-45.5 5.7 8.5 5.7 21.5 5.6-41.9 5.7-15.9 5.7 34 5.6 216.6 5.7-190.1 5.7-30.8 5.6-12.6 5.7 29.8 5.7-12.2 5.7-31.6 5.6 20 5.7 214.9 5.7-225.1 5.6 29.3 5.7.1 5.7-30.9 5.6-7.2 5.7 70.7 5.7-3.4 5.6-48.9 5.7.7 5.7 30.6 5.6-1.4 5.7-31.7 5.7 36 5.6 17.4 5.7-33.5 5.7-8.7 5.6 23.2 5.7-6.7 5.7-35.2 5.6 31.8 5.7-9.3 5.7-5.5 5.6-32.6 5.7 58.7 5.7 1.3 5.6-48.9 5.7 3.9 5.7 6.8 5.6-40.5 5.7 66.8 5.7 17.4 5.7-26.1 5.6 16.2 5.7 1 5.7-59.4 5.6 58.2 5.7-43.3 5.7 21.3 5.6 24.3 5.7 16.7 5.7 11.8 5.6-45.9 5.7 23.1 5.7-22.3 5.6 12.2 5.7-7.2 5.7 3 5.6-.1 5.7-.1 5.7-5.3 5.6-16.2 5.7-61.7 5.7 69.8 5.6 16.4 5.7 6.5 5.7-37.8 5.6 31.6 5.7-3.1 5.7-18 5.6 14.4 5.7 47.2 5.7-45.8 5.6-3.8 5.7-44.3 5.7 7.1 5.7 67.9 5.6-17.4 5.7 28.7 5.7-37L558.3 26l5.7 167.6 5.7 21 5.6-3.7 5.7 5.2 5.7-58.5 5.6 7.2 5.7 38.4 5.7 17.7 5.6-26.8 5.7 24.3" fill="none" color="#000"/><text transform="translate(275.6 485.9)" stroke="none" fill="#000" font-family="Arial" font-size="12" text-anchor="end" color="#000"><tspan>pages+cached+noexternal+nojs</tspan></text><path stroke="#009E73" d="M283.9 482h42.2M53.9 287.7l5.7 46.9 5.6-8.5 5.7 7 5.7 27.9 5.6 16.6 5.7-17.1 5.7-32.8 5.6-5.7 5.7-20.6 5.7 47.4 5.6-4.5 5.7 19.6 5.7-47.1 5.6 23.1 5.7-18.1 5.7 28.2 5.7 21.8 5.6-54.8 5.7 24.6 5.7 10.2 5.6-2.5 5.7 6.2 5.7-7.6 5.6 18.9 5.7-3.2 5.7-29.9 5.6 13.7 5.7 37.5 5.7-39.9 5.6 8.5 5.7-15.7 5.7-6.9 5.6 8.7 5.7 15.5 5.7 5.5 5.6-3.4 5.7-2.1 5.7-2.2 5.6-42.8 5.7 49.7 5.7 13.3 5.6-8.8 5.7-29.2 5.7-3.8 5.6 15.7 5.7 48.3 5.7-34.4 5.6-41.8 5.7 46.7 5.7 2.1 5.7-2.1 5.6-25.7 5.7 14.8 5.7-31 5.6 16.5 5.7 13.5 5.7-39.1 5.6 35.2 5.7-5.9 5.7 4.3 5.6-18.1 5.7 19.2 5.7 11.3 5.6-23.5 5.7 6.3 5.7-10.2 5.6 30.2 5.7-4 5.7 14.5 5.6-42.9 5.7 35.8 5.7-25.5 5.6 27.3 5.7 6.1 5.7-10.5 5.6-8.1 5.7-19.7 5.7 25.5 5.6-10.6 5.7-11.2 5.7-26.4 5.6 50.9 5.7-17.3 5.7-1.6 5.7 10.6 5.6 12.1 5.7-35.7 5.7 25.7 5.6-3.6 5.7-10.2 5.7-7.6 5.6 23.4 5.7.4 5.7-40.4 5.6 33.8 5.7-19.2 5.7 2.3 5.6 13 5.7 14.7" fill="none" color="#000"/><text transform="translate(575.1 467.9)" stroke="none" fill="#000" font-family="Arial" font-size="12" text-anchor="end" color="#000"><tspan>score p10=2017</tspan></text><path stroke="#56B4E9" d="M583.4 464h42.2" fill="none" color="#000"/><g><text transform="translate(575.1 485.9)" stroke="none" fill="#000" font-family="Arial" font-size="12" text-anchor="end" color="#000"><tspan>score median=4000</tspan></text><path stroke="#E69F00" d="M583.4 482h42.2" fill="none" color="#000"/></g><g fill="none" color="#000" stroke="currentColor"><path stroke="#000" d="M53.9 18.1V428H615V18.1H53.9z"/></g></svg>

<?xml version="1.0" encoding="utf-8"  standalone="no"?>
<svg 
 width="640" height="500"
 viewBox="0 0 640 500"
 xmlns="http://www.w3.org/2000/svg"
 xmlns:xlink="http://www.w3.org/1999/xlink"
>

<title>Gnuplot</title>
<desc>Produced by GNUPLOT 5.4 patchlevel 0 </desc>

<g id="gnuplot_canvas">

<rect x="0" y="0" width="640" height="500" fill="#ffffff"/>
<defs>

	<circle id='gpDot' r='0.5' stroke-width='0.5' stroke='currentColor'/>
	<path id='gpPt0' stroke-width='0.222' stroke='currentColor' d='M-1,0 h2 M0,-1 v2'/>
	<path id='gpPt1' stroke-width='0.222' stroke='currentColor' d='M-1,-1 L1,1 M1,-1 L-1,1'/>
	<path id='gpPt2' stroke-width='0.222' stroke='currentColor' d='M-1,0 L1,0 M0,-1 L0,1 M-1,-1 L1,1 M-1,1 L1,-1'/>
	<rect id='gpPt3' stroke-width='0.222' stroke='currentColor' x='-1' y='-1' width='2' height='2'/>
	<rect id='gpPt4' stroke-width='0.222' stroke='currentColor' fill='currentColor' x='-1' y='-1' width='2' height='2'/>
	<circle id='gpPt5' stroke-width='0.222' stroke='currentColor' cx='0' cy='0' r='1'/>
	<use xlink:href='#gpPt5' id='gpPt6' fill='currentColor' stroke='none'/>
	<path id='gpPt7' stroke-width='0.222' stroke='currentColor' d='M0,-1.33 L-1.33,0.67 L1.33,0.67 z'/>
	<use xlink:href='#gpPt7' id='gpPt8' fill='currentColor' stroke='none'/>
	<use xlink:href='#gpPt7' id='gpPt9' stroke='currentColor' transform='rotate(180)'/>
	<use xlink:href='#gpPt9' id='gpPt10' fill='currentColor' stroke='none'/>
	<use xlink:href='#gpPt3' id='gpPt11' stroke='currentColor' transform='rotate(45)'/>
	<use xlink:href='#gpPt11' id='gpPt12' fill='currentColor' stroke='none'/>
	<path id='gpPt13' stroke-width='0.222' stroke='currentColor' d='M0,1.330 L1.265,0.411 L0.782,-1.067 L-0.782,-1.076 L-1.265,0.411 z'/>
	<use xlink:href='#gpPt13' id='gpPt14' fill='currentColor' stroke='none'/>
	<filter id='textbox' filterUnits='objectBoundingBox' x='0' y='0' height='1' width='1'>
	  <feFlood flood-color='#FFFFFF' flood-opacity='1' result='bgnd'/>
	  <feComposite in='SourceGraphic' in2='bgnd' operator='atop'/>
	</filter>
	<filter id='greybox' filterUnits='objectBoundingBox' x='0' y='0' height='1' width='1'>
	  <feFlood flood-color='lightgrey' flood-opacity='1' result='grey'/>
	  <feComposite in='SourceGraphic' in2='grey' operator='atop'/>
	</filter>
</defs>
<g fill="none" color="#FFFFFF" stroke="black" stroke-width="1.00" stroke-linecap="butt" stroke-linejoin="miter">
</g>
<g fill="none" color="black" stroke="currentColor" stroke-width="1.00" stroke-linecap="butt" stroke-linejoin="miter">
	<path stroke='black'  d='M53.9,374.3 L62.9,374.3 M615.0,374.3 L606.0,374.3  '/>	<g transform="translate(45.6,378.2)" stroke="none" fill="black" font-family="Arial" font-size="12.00"  text-anchor="end">
		<text><tspan font-family="Arial" > 420</tspan></text>
	</g>
</g>
<g fill="none" color="black" stroke="currentColor" stroke-width="1.00" stroke-linecap="butt" stroke-linejoin="miter">
	<path stroke='black'  d='M53.9,318.4 L62.9,318.4 M615.0,318.4 L606.0,318.4  '/>	<g transform="translate(45.6,322.3)" stroke="none" fill="black" font-family="Arial" font-size="12.00"  text-anchor="end">
		<text><tspan font-family="Arial" > 440</tspan></text>
	</g>
</g>
<g fill="none" color="black" stroke="currentColor" stroke-width="1.00" stroke-linecap="butt" stroke-linejoin="miter">
	<path stroke='black'  d='M53.9,262.5 L62.9,262.5 M615.0,262.5 L606.0,262.5  '/>	<g transform="translate(45.6,266.4)" stroke="none" fill="black" font-family="Arial" font-size="12.00"  text-anchor="end">
		<text><tspan font-family="Arial" > 460</tspan></text>
	</g>
</g>
<g fill="none" color="black" stroke="currentColor" stroke-width="1.00" stroke-linecap="butt" stroke-linejoin="miter">
	<path stroke='black'  d='M53.9,206.6 L62.9,206.6 M615.0,206.6 L606.0,206.6  '/>	<g transform="translate(45.6,210.5)" stroke="none" fill="black" font-family="Arial" font-size="12.00"  text-anchor="end">
		<text><tspan font-family="Arial" > 480</tspan></text>
	</g>
</g>
<g fill="none" color="black" stroke="currentColor" stroke-width="1.00" stroke-linecap="butt" stroke-linejoin="miter">
	<path stroke='black'  d='M53.9,150.7 L62.9,150.7 M615.0,150.7 L606.0,150.7  '/>	<g transform="translate(45.6,154.6)" stroke="none" fill="black" font-family="Arial" font-size="12.00"  text-anchor="end">
		<text><tspan font-family="Arial" > 500</tspan></text>
	</g>
</g>
<g fill="none" color="black" stroke="currentColor" stroke-width="1.00" stroke-linecap="butt" stroke-linejoin="miter">
	<path stroke='black'  d='M53.9,94.8 L62.9,94.8 M615.0,94.8 L606.0,94.8  '/>	<g transform="translate(45.6,98.7)" stroke="none" fill="black" font-family="Arial" font-size="12.00"  text-anchor="end">
		<text><tspan font-family="Arial" > 520</tspan></text>
	</g>
</g>
<g fill="none" color="black" stroke="currentColor" stroke-width="1.00" stroke-linecap="butt" stroke-linejoin="miter">
	<path stroke='black'  d='M53.9,39.0 L62.9,39.0 M615.0,39.0 L606.0,39.0  '/>	<g transform="translate(45.6,42.9)" stroke="none" fill="black" font-family="Arial" font-size="12.00"  text-anchor="end">
		<text><tspan font-family="Arial" > 540</tspan></text>
	</g>
</g>
<g fill="none" color="black" stroke="currentColor" stroke-width="1.00" stroke-linecap="butt" stroke-linejoin="miter">
	<path stroke='black'  d='M53.9,428.0 L53.9,419.0 M53.9,18.1 L53.9,27.1  '/>	<g transform="translate(53.9,449.9)" stroke="none" fill="black" font-family="Arial" font-size="12.00"  text-anchor="middle">
		<text><tspan font-family="Arial" > 0</tspan></text>
	</g>
</g>
<g fill="none" color="black" stroke="currentColor" stroke-width="1.00" stroke-linecap="butt" stroke-linejoin="miter">
	<path stroke='black'  d='M110.6,428.0 L110.6,419.0 M110.6,18.1 L110.6,27.1  '/>	<g transform="translate(110.6,449.9)" stroke="none" fill="black" font-family="Arial" font-size="12.00"  text-anchor="middle">
		<text><tspan font-family="Arial" > 10</tspan></text>
	</g>
</g>
<g fill="none" color="black" stroke="currentColor" stroke-width="1.00" stroke-linecap="butt" stroke-linejoin="miter">
	<path stroke='black'  d='M167.3,428.0 L167.3,419.0 M167.3,18.1 L167.3,27.1  '/>	<g transform="translate(167.3,449.9)" stroke="none" fill="black" font-family="Arial" font-size="12.00"  text-anchor="middle">
		<text><tspan font-family="Arial" > 20</tspan></text>
	</g>
</g>
<g fill="none" color="black" stroke="currentColor" stroke-width="1.00" stroke-linecap="butt" stroke-linejoin="miter">
	<path stroke='black'  d='M223.9,428.0 L223.9,419.0 M223.9,18.1 L223.9,27.1  '/>	<g transform="translate(223.9,449.9)" stroke="none" fill="black" font-family="Arial" font-size="12.00"  text-anchor="middle">
		<text><tspan font-family="Arial" > 30</tspan></text>
	</g>
</g>
<g fill="none" color="black" stroke="currentColor" stroke-width="1.00" stroke-linecap="butt" stroke-linejoin="miter">
	<path stroke='black'  d='M280.6,428.0 L280.6,419.0 M280.6,18.1 L280.6,27.1  '/>	<g transform="translate(280.6,449.9)" stroke="none" fill="black" font-family="Arial" font-size="12.00"  text-anchor="middle">
		<text><tspan font-family="Arial" > 40</tspan></text>
	</g>
</g>
<g fill="none" color="black" stroke="currentColor" stroke-width="1.00" stroke-linecap="butt" stroke-linejoin="miter">
	<path stroke='black'  d='M337.3,428.0 L337.3,419.0 M337.3,18.1 L337.3,27.1  '/>	<g transform="translate(337.3,449.9)" stroke="none" fill="black" font-family="Arial" font-size="12.00"  text-anchor="middle">
		<text><tspan font-family="Arial" > 50</tspan></text>
	</g>
</g>
<g fill="none" color="black" stroke="currentColor" stroke-width="1.00" stroke-linecap="butt" stroke-linejoin="miter">
	<path stroke='black'  d='M394.0,428.0 L394.0,419.0 M394.0,18.1 L394.0,27.1  '/>	<g transform="translate(394.0,449.9)" stroke="none" fill="black" font-family="Arial" font-size="12.00"  text-anchor="middle">
		<text><tspan font-family="Arial" > 60</tspan></text>
	</g>
</g>
<g fill="none" color="black" stroke="currentColor" stroke-width="1.00" stroke-linecap="butt" stroke-linejoin="miter">
	<path stroke='black'  d='M450.6,428.0 L450.6,419.0 M450.6,18.1 L450.6,27.1  '/>	<g transform="translate(450.6,449.9)" stroke="none" fill="black" font-family="Arial" font-size="12.00"  text-anchor="middle">
		<text><tspan font-family="Arial" > 70</tspan></text>
	</g>
</g>
<g fill="none" color="black" stroke="currentColor" stroke-width="1.00" stroke-linecap="butt" stroke-linejoin="miter">
	<path stroke='black'  d='M507.3,428.0 L507.3,419.0 M507.3,18.1 L507.3,27.1  '/>	<g transform="translate(507.3,449.9)" stroke="none" fill="black" font-family="Arial" font-size="12.00"  text-anchor="middle">
		<text><tspan font-family="Arial" > 80</tspan></text>
	</g>
</g>
<g fill="none" color="black" stroke="currentColor" stroke-width="1.00" stroke-linecap="butt" stroke-linejoin="miter">
	<path stroke='black'  d='M564.0,428.0 L564.0,419.0 M564.0,18.1 L564.0,27.1  '/>	<g transform="translate(564.0,449.9)" stroke="none" fill="black" font-family="Arial" font-size="12.00"  text-anchor="middle">
		<text><tspan font-family="Arial" > 90</tspan></text>
	</g>
</g>
<g fill="none" color="black" stroke="currentColor" stroke-width="1.00" stroke-linecap="butt" stroke-linejoin="miter">
</g>
<g fill="none" color="black" stroke="currentColor" stroke-width="1.00" stroke-linecap="butt" stroke-linejoin="miter">
	<path stroke='black'  d='M53.9,18.1 L53.9,428.0 L615.0,428.0 L615.0,18.1 L53.9,18.1 Z  '/></g>
<g fill="none" color="black" stroke="currentColor" stroke-width="1.00" stroke-linecap="butt" stroke-linejoin="miter">
</g>
	<g id="gnuplot_plot_1" ><title>pages+cached+noexternal+nocss</title>
<g fill="none" color="black" stroke="currentColor" stroke-width="1.00" stroke-linecap="butt" stroke-linejoin="miter">
	<g transform="translate(275.6,467.9)" stroke="none" fill="black" font-family="Arial" font-size="12.00"  text-anchor="end">
		<text><tspan font-family="Arial" >pages+cached+noexternal+nocss</tspan></text>
	</g>
</g>
<g fill="none" color="black" stroke="currentColor" stroke-width="1.00" stroke-linecap="butt" stroke-linejoin="miter">
	<path stroke='rgb(148,   0, 211)'  d='M283.9,464.0 L326.1,464.0 M53.9,255.9 L59.6,231.4 L65.2,194.2 L70.9,202.1 L76.6,242.8 L82.2,197.3
		L87.9,205.8 L93.6,227.3 L99.2,185.4 L104.9,169.5 L110.6,203.5 L116.2,420.1 L121.9,230.0 L127.6,199.2
		L133.2,186.6 L138.9,216.4 L144.6,204.2 L150.3,172.6 L155.9,192.6 L161.6,407.5 L167.3,182.4 L172.9,211.7
		L178.6,211.8 L184.3,180.9 L189.9,173.7 L195.6,244.4 L201.3,241.0 L206.9,192.1 L212.6,192.8 L218.3,223.4
		L223.9,222.0 L229.6,190.3 L235.3,226.3 L240.9,243.7 L246.6,210.2 L252.3,201.5 L257.9,224.7 L263.6,218.0
		L269.3,182.8 L274.9,214.6 L280.6,205.3 L286.3,199.8 L291.9,167.2 L297.6,225.9 L303.3,227.2 L308.9,178.3
		L314.6,182.2 L320.3,189.0 L325.9,148.5 L331.6,215.3 L337.3,232.7 L343.0,206.6 L348.6,222.8 L354.3,223.8
		L360.0,164.4 L365.6,222.6 L371.3,179.3 L377.0,200.6 L382.6,224.9 L388.3,241.6 L394.0,253.4 L399.6,207.5
		L405.3,230.6 L411.0,208.3 L416.6,220.5 L422.3,213.3 L428.0,216.3 L433.6,216.2 L439.3,216.1 L445.0,210.8
		L450.6,194.6 L456.3,132.9 L462.0,202.7 L467.6,219.1 L473.3,225.6 L479.0,187.8 L484.6,219.4 L490.3,216.3
		L496.0,198.3 L501.6,212.7 L507.3,259.9 L513.0,214.1 L518.6,210.3 L524.3,166.0 L530.0,173.1 L535.7,241.0
		L541.3,223.6 L547.0,252.3 L552.7,215.3 L558.3,26.0 L564.0,193.6 L569.7,214.6 L575.3,210.9 L581.0,216.1
		L586.7,157.6 L592.3,164.8 L598.0,203.2 L603.7,220.9 L609.3,194.1 L615.0,218.4  '/></g>
	</g>
	<g id="gnuplot_plot_2" ><title>pages+cached+noexternal+nojs</title>
<g fill="none" color="black" stroke="currentColor" stroke-width="1.00" stroke-linecap="butt" stroke-linejoin="miter">
	<g transform="translate(275.6,485.9)" stroke="none" fill="black" font-family="Arial" font-size="12.00"  text-anchor="end">
		<text><tspan font-family="Arial" >pages+cached+noexternal+nojs</tspan></text>
	</g>
</g>
<g fill="none" color="black" stroke="currentColor" stroke-width="1.00" stroke-linecap="butt" stroke-linejoin="miter">
	<path stroke='rgb(  0, 158, 115)'  d='M283.9,482.0 L326.1,482.0 M53.9,287.7 L59.6,334.6 L65.2,326.1 L70.9,333.1 L76.6,361.0 L82.2,377.6
		L87.9,360.5 L93.6,327.7 L99.2,322.0 L104.9,301.4 L110.6,348.8 L116.2,344.3 L121.9,363.9 L127.6,316.8
		L133.2,339.9 L138.9,321.8 L144.6,350.0 L150.3,371.8 L155.9,317.0 L161.6,341.6 L167.3,351.8 L172.9,349.3
		L178.6,355.5 L184.3,347.9 L189.9,366.8 L195.6,363.6 L201.3,333.7 L206.9,347.4 L212.6,384.9 L218.3,345.0
		L223.9,353.5 L229.6,337.8 L235.3,330.9 L240.9,339.6 L246.6,355.1 L252.3,360.6 L257.9,357.2 L263.6,355.1
		L269.3,352.9 L274.9,310.1 L280.6,359.8 L286.3,373.1 L291.9,364.3 L297.6,335.1 L303.3,331.3 L308.9,347.0
		L314.6,395.3 L320.3,360.9 L325.9,319.1 L331.6,365.8 L337.3,367.9 L343.0,365.8 L348.6,340.1 L354.3,354.9
		L360.0,323.9 L365.6,340.4 L371.3,353.9 L377.0,314.8 L382.6,350.0 L388.3,344.1 L394.0,348.4 L399.6,330.3
		L405.3,349.5 L411.0,360.8 L416.6,337.3 L422.3,343.6 L428.0,333.4 L433.6,363.6 L439.3,359.6 L445.0,374.1
		L450.6,331.2 L456.3,367.0 L462.0,341.5 L467.6,368.8 L473.3,374.9 L479.0,364.4 L484.6,356.3 L490.3,336.6
		L496.0,362.1 L501.6,351.5 L507.3,340.3 L513.0,313.9 L518.6,364.8 L524.3,347.5 L530.0,345.9 L535.7,356.5
		L541.3,368.6 L547.0,332.9 L552.7,358.6 L558.3,355.0 L564.0,344.8 L569.7,337.2 L575.3,360.6 L581.0,361.0
		L586.7,320.6 L592.3,354.4 L598.0,335.2 L603.7,337.5 L609.3,350.5 L615.0,365.2  '/></g>
	</g>
	<g id="gnuplot_plot_3" ><title>score p10=2017</title>
<g fill="none" color="black" stroke="currentColor" stroke-width="1.00" stroke-linecap="butt" stroke-linejoin="miter">
	<g transform="translate(575.1,467.9)" stroke="none" fill="black" font-family="Arial" font-size="12.00"  text-anchor="end">
		<text><tspan font-family="Arial" >score p10=2017</tspan></text>
	</g>
</g>
<g fill="none" color="black" stroke="currentColor" stroke-width="1.00" stroke-linecap="butt" stroke-linejoin="miter">
	<path stroke='rgb( 86, 180, 233)'  d='M583.4,464.0 L625.6,464.0  '/></g>
	</g>
	<g id="gnuplot_plot_4" ><title>score median=4000</title>
<g fill="none" color="black" stroke="currentColor" stroke-width="1.00" stroke-linecap="butt" stroke-linejoin="miter">
	<g transform="translate(575.1,485.9)" stroke="none" fill="black" font-family="Arial" font-size="12.00"  text-anchor="end">
		<text><tspan font-family="Arial" >score median=4000</tspan></text>
	</g>
</g>
<g fill="none" color="black" stroke="currentColor" stroke-width="1.00" stroke-linecap="butt" stroke-linejoin="miter">
	<path stroke='rgb(230, 159,   0)'  d='M583.4,482.0 L625.6,482.0  '/></g>
	</g>
<g fill="none" color="#FFFFFF" stroke="rgb(230, 159,   0)" stroke-width="2.00" stroke-linecap="butt" stroke-linejoin="miter">
</g>
<g fill="none" color="black" stroke="currentColor" stroke-width="2.00" stroke-linecap="butt" stroke-linejoin="miter">
</g>
<g fill="none" color="black" stroke="black" stroke-width="1.00" stroke-linecap="butt" stroke-linejoin="miter">
</g>
<g fill="none" color="black" stroke="currentColor" stroke-width="1.00" stroke-linecap="butt" stroke-linejoin="miter">
	<path stroke='black'  d='M53.9,18.1 L53.9,428.0 L615.0,428.0 L615.0,18.1 L53.9,18.1 Z  '/></g>
<g fill="none" color="black" stroke="currentColor" stroke-width="1.00" stroke-linecap="butt" stroke-linejoin="miter">
</g>
</g>
</svg>
